X: 15
T: Song Sung after Raising the Sacred Pole (b)
C: Teton Sioux band 1911-1914
N: Derived from sioux015.krn
O: South Dakota, U.S.A.
N: Teton Sioux Music by Frances Densmore, 1918
Z: transcribed to **kern format by Craig Sapp
L: 1/8
M: 3/4
Q: 1/4=58
K: Db clef=treble
%%linebreak <none>
A A A AA2 [I:setbarnb 1]||  
[M:2/4]A2A/ E3/ | 
E2E/ E3/ ||  
[M:3/4]F F F EE2 ||  
[M:2/4]E2E/ D3/ | 
D> D D/ B,/ B, | 
D2B,/ B,3/ | 
B,2B, B, | 
D D D3/ E/ | 
D> D D/ B,/ B, | 
D2B,/ B,3/ | 
B,2B,/ B,3/ ||  
[M:3/4]B,6 | 
E E E EE2 ||  
[M:2/4]E2E/ D3/ | 
D> D D/ B,/ B, | 
D2B,/ B,3/ | 
B, B, B, B,-B,2 [I:setbarnb 17]| 
D D D3/ E/ | 
D> D D/ B,/ B, | 
D2B,/ B,3/ | 
B,2B,/ B,3/ | 
B,4- | 
B,4 | 
B,2z2 |]  



